src/16/actions/align-vertical-baseline.svg

<svg xmlns="http://www.w3.org/2000/svg" viewBox="0 0 16 16">
  <defs id="defs3051">
    <style type="text/css" id="current-color-scheme">
      .ColorScheme-Text {
        color:#5d656b;
      }
      </style>
  </defs>
 <path style="fill:currentColor;fill-opacity:1;stroke:none" 
       d="M 3.4941406 3 C 3.7115306 4.45492 4.2949556 6.1066031 5.5722656 7.5019531 C 5.2261191 8.0348301 4.9673004 8.4977228 4.5605469 9 L 2 9 L 2 10 L 3.578125 10 C 3.1910047 10.329411 2.708179 10.6938 2.0820312 11.113281 L 2.9101562 12.101562 C 3.8645939 11.393992 4.6296325 10.694803 5.28125 10 L 14 10 L 14 9 L 6.1328125 9 C 7.6839402 6.9967705 8.3215837 5.0209937 9 3 L 7.78125 3 C 7.36835 4.23004 7.05606 5.2563125 6.34375 6.3828125 C 5.32372 5.2240225 5.0090786 4.23727 4.8242188 3 L 3.4941406 3 z M 11.880859 3 C 11.013272 3.0182 10.347519 3.1551085 9.8632812 3.3554688 L 10.136719 4.2558594 C 10.368747 4.1829593 11.245266 3.9296875 11.759766 3.9296875 L 11.832031 3.9296875 C 12.548297 3.9569875 12.597656 4.1924961 12.597656 4.7480469 L 12.597656 4.9667969 L 12.224609 5.0214844 C 10.489424 5.2491747 9.5605469 5.4403864 9.5605469 6.6425781 C 9.5605469 7.4804693 10.236277 8 11.214844 8 C 11.890756 8 12.335098 7.744518 12.789062 7.3984375 L 12.929688 7.9082031 L 14 7.9082031 L 14 4.5390625 C 14 3.5099211 13.212548 3 12.001953 3 L 11.880859 3 z M 12.597656 5.6777344 L 12.597656 6.7988281 C 12.224398 7.0265184 11.941269 7.1894531 11.457031 7.1894531 C 11.023238 7.1894531 10.8125 6.9437367 10.8125 6.5976562 C 10.8125 5.9419153 11.447808 5.832602 12.224609 5.7324219 L 12.597656 5.6777344 z "
     class="ColorScheme-Text"
     />
</svg>

<svg xmlns="http://www.w3.org/2000/svg" viewBox="0 0 16 16"><path d="M3.494 3c.218 1.455.801 3.107 2.078 4.502-.346.533-.605.996-1.011 1.498H2v1h1.578c-.387.33-.87.694-1.496 1.113l.828.989A17.474 17.474 0 0 0 5.281 10H14V9H6.133C7.683 6.997 8.322 5.021 9 3H7.781c-.413 1.23-.725 2.256-1.437 3.383C5.324 5.224 5.009 4.237 4.824 3h-1.33zm8.387 0c-.868.018-1.533.155-2.018.355l.274.9c.232-.072 1.108-.325 1.623-.325h.072c.716.027.766.262.766.818v.219l-.373.054c-1.736.228-2.664.42-2.664 1.622C9.56 7.48 10.236 8 11.215 8c.676 0 1.12-.255 1.574-.602l.14.51H14V4.54C14 3.51 13.213 3 12.002 3h-.121zm.717 2.678v1.12c-.374.229-.657.391-1.141.391-.434 0-.645-.245-.645-.591 0-.656.636-.765 1.413-.866l.373-.054z" fill="currentColor" color="#5d656b"/></svg>
